images/fig19.svg

<?xml version="1.0" standalone="no"?>
<!DOCTYPE svg PUBLIC "-//W3C//DTD SVG 1.1//EN" 
  "http://www.w3.org/Graphics/SVG/1.1/DTD/svg11.dtd">
<!-- Created with ASCIIToSVG (http://9vx.org/~dho/a2s/) -->
<svg width="450px" height="528px" version="1.1"
  xmlns="http://www.w3.org/2000/svg" xmlns:xlink="http://www.w3.org/1999/xlink">
  <defs>
    <filter id="dsFilter" width="150%" height="150%">
      <feOffset result="offOut" in="SourceGraphic" dx="3" dy="3"/>
      <feColorMatrix result="matrixOut" in="offOut" type="matrix" values="0.2 0 0 0 0 0 0.2 0 0 0 0 0 0.2 0 0 0 0 0 1 0"/>
      <feBlend in="SourceGraphic" in2="matrixOut" mode="normal"/>
    </filter>
    <marker id="iPointer"
      viewBox="0 0 10 10" refX="5" refY="5" 
      markerUnits="strokeWidth"
      markerWidth="8" markerHeight="7"
      orient="auto">
      <path d="M 10 0 L 10 10 L 0 5 z" />
    </marker>
    <marker id="Pointer"
      viewBox="0 0 10 10" refX="5" refY="5" 
      markerUnits="strokeWidth"
      markerWidth="8" markerHeight="7"
      orient="auto">
      <path d="M 0 0 L 10 5 L 0 10 z" />
    </marker>
  </defs><g id="boxes" stroke="black" stroke-width="2" fill="none" >
<g id="group0">
	<path id="path0" filter="url(#dsFilter)" fill="#fff" d="M 121.5 8 L 247.5 8 L 247.5 62 Q 247.5 72 237.5 72 L 131.5 72 Q 121.5 72 121.5 62 Z" />
	<text x="143.1" y="28.8" id="text0" fill="#000" stroke="none" style="font-family:LMMono10,monospace;font-size:15.2px" >Ventilator </text>

	<text x="161.1" y="60.8" id="text0" fill="#000" stroke="none" style="font-family:LMMono10,monospace;font-size:15.2px" >PUSH </text>

</g>
<g id="group14">
	<path id="path14" filter="url(#dsFilter)" fill="#fff" d="M 4.5 210 Q 4.5 200 14.5 200 L 111.5 200 Q 121.5 200 121.5 210 L 121.5 286 Q 121.5 296 111.5 296 L 14.5 296 Q 4.5 296 4.5 286 Z" />
	<text x="17.1" y="220.8" id="text14" fill="#000" stroke="none" style="font-family:LMMono10,monospace;font-size:15.2px" >PULL </text>

	<text x="80.1" y="220.8" id="text14" fill="#000" stroke="none" style="font-family:LMMono10,monospace;font-size:15.2px" >SUB </text>

	<text x="35.1" y="252.8" id="text14" fill="#000" stroke="none" style="font-family:LMMono10,monospace;font-size:15.2px" >Worker </text>

	<text x="44.1" y="284.8" id="text14" fill="#000" stroke="none" style="font-family:LMMono10,monospace;font-size:15.2px" >PUSH </text>

</g>
<g id="group17">
	<path id="path17" filter="url(#dsFilter)" fill="#fff" d="M 148.5 210 Q 148.5 200 158.5 200 L 255.5 200 Q 265.5 200 265.5 210 L 265.5 286 Q 265.5 296 255.5 296 L 158.5 296 Q 148.5 296 148.5 286 Z" />
	<text x="161.1" y="220.8" id="text17" fill="#000" stroke="none" style="font-family:LMMono10,monospace;font-size:15.2px" >PULL </text>

	<text x="224.1" y="220.8" id="text17" fill="#000" stroke="none" style="font-family:LMMono10,monospace;font-size:15.2px" >SUB </text>

	<text x="179.1" y="252.8" id="text17" fill="#000" stroke="none" style="font-family:LMMono10,monospace;font-size:15.2px" >Worker </text>

	<text x="188.1" y="284.8" id="text17" fill="#000" stroke="none" style="font-family:LMMono10,monospace;font-size:15.2px" >PUSH </text>

</g>
<g id="group20">
	<path id="path20" filter="url(#dsFilter)" fill="#fff" d="M 292.5 210 Q 292.5 200 302.5 200 L 399.5 200 Q 409.5 200 409.5 210 L 409.5 286 Q 409.5 296 399.5 296 L 302.5 296 Q 292.5 296 292.5 286 Z" />
	<text x="305.1" y="220.8" id="text20" fill="#000" stroke="none" style="font-family:LMMono10,monospace;font-size:15.2px" >PULL </text>

	<text x="368.1" y="220.8" id="text20" fill="#000" stroke="none" style="font-family:LMMono10,monospace;font-size:15.2px" >SUB </text>

	<text x="323.1" y="252.8" id="text20" fill="#000" stroke="none" style="font-family:LMMono10,monospace;font-size:15.2px" >Worker </text>

	<text x="332.1" y="284.8" id="text20" fill="#000" stroke="none" style="font-family:LMMono10,monospace;font-size:15.2px" >PUSH </text>

</g>
<g id="group50">
	<path id="path50" filter="url(#dsFilter)" fill="#fff" d="M 139.5 418 Q 139.5 408 149.5 408 L 255.5 408 Q 265.5 408 265.5 418 L 265.5 494 Q 265.5 504 255.5 504 L 149.5 504 Q 139.5 504 139.5 494 Z" />
	<text x="179.1" y="428.8" id="text50" fill="#000" stroke="none" style="font-family:LMMono10,monospace;font-size:15.2px" >PULL </text>

	<text x="179.1" y="460.8" id="text50" fill="#000" stroke="none" style="font-family:LMMono10,monospace;font-size:15.2px" >Sink </text>

	<text x="188.1" y="492.8" id="text50" fill="#000" stroke="none" style="font-family:LMMono10,monospace;font-size:15.2px" >PUB </text>

</g>
</g>
<g id="lines" stroke="black" stroke-width="2" fill="none" >
<g id="group74">
	<path id="path74" d="M 4.5 232 L 67.5 232 L 121.5 232 " />
</g>
<g id="group77">
	<path id="path77" d="M 4.5 264 L 121.5 264 " />
</g>
<g id="group205">
	<path id="path205" marker-start="url(#iPointer)" marker-end="url(#Pointer)" d="M 40.5 184 L 40.5 130 Q 40.5 120 50.5 120 L 184.5 120 L 318.5 120 Q 328.5 120 328.5 130 L 328.5 184 " />
</g>
<g id="group278">
	<path id="path278" d="M 58.5 296 L 58.5 318 Q 58.5 328 68.5 328 L 202.5 328 L 336.5 328 Q 346.5 328 346.5 318 L 346.5 296 " />
</g>
<g id="group306">
	<path id="path306" d="M 67.5 200 L 67.5 232 " />
</g>
<g id="group405">
	<path id="path405" stroke-dasharray="5 5" marker-start="url(#iPointer)" d="M 94.5 184 L 94.5 162 Q 94.5 152 104.5 152 L 184.5 152 " />
</g>
<g id="group495">
	<path id="path495" d="M 121.5 40 L 247.5 40 " />
</g>
<g id="group587">
	<path id="path587" d="M 139.5 440 L 265.5 440 " />
</g>
<g id="group590">
	<path id="path590" d="M 139.5 472 L 265.5 472 L 265.5 488 L 265.5 494 Q 265.5 504 255.5 504 " />
</g>
<g id="group609">
	<path id="path609" d="M 148.5 232 L 211.5 232 L 265.5 232 " />
</g>
<g id="group612">
	<path id="path612" d="M 148.5 264 L 265.5 264 " />
</g>
<g id="group735">
	<path id="path735" d="M 184.5 104 L 184.5 120 L 184.5 152 " />
</g>
<g id="group740">
	<path id="path740" marker-start="url(#iPointer)" d="M 184.5 184 L 184.5 152 " />
</g>
<g id="group771">
	<path id="path771" stroke-dasharray="5 5" d="M 193.5 152 L 238.5 152 L 328.5 152 " />
</g>
<g id="group813">
	<path id="path813" d="M 202.5 296 L 202.5 328 L 202.5 360 " />
</g>
<g id="group820">
	<path id="path820" marker-start="url(#iPointer)" d="M 202.5 392 L 202.5 360 " />
</g>
<g id="group841">
	<path id="path841" d="M 211.5 200 L 211.5 232 " />
</g>
<g id="group938">
	<path id="path938" marker-end="url(#Pointer)" d="M 238.5 152 L 238.5 184 " />
</g>
<g id="group1059">
	<path id="path1059" stroke-dasharray="5 5" d="M 265.5 488 L 310.5 488 " />
</g>
<g id="group1143">
	<path id="path1143" d="M 292.5 232 L 355.5 232 L 409.5 232 " />
</g>
<g id="group1146">
	<path id="path1146" d="M 292.5 264 L 409.5 264 " />
</g>
<g id="group1305">
	<path id="path1305" stroke-dasharray="5 5" d="M 337.5 152 L 382.5 152 L 435.5 152 Q 445.5 152 445.5 162 L 445.5 478 Q 445.5 488 435.5 488 L 400.5 488 " />
</g>
<g id="group1374">
	<path id="path1374" d="M 355.5 200 L 355.5 232 " />
</g>
<g id="group1471">
	<path id="path1471" marker-end="url(#Pointer)" d="M 382.5 152 L 382.5 184 " />
</g>
</g>
<g id="text" fill="black" style="font-family:LMMono10,monospace;font-size:15.2px" >
<text x="161.1" y="92.8" id="text2" fill="#000" >tasks</text>
<text x="170.1" y="364.8" id="text15" fill="#000" >results </text>
<text x="305.1" y="492.8" id="text19" fill="#000" >KILL signal </text>
</g>
</svg>

<?xml version="1.0" encoding="UTF-8" standalone="no"?>
<!-- Created with Inkscape (http://www.inkscape.org/) -->

<svg
   xmlns:dc="http://purl.org/dc/elements/1.1/"
   xmlns:cc="http://creativecommons.org/ns#"
   xmlns:rdf="http://www.w3.org/1999/02/22-rdf-syntax-ns#"
   xmlns:svg="http://www.w3.org/2000/svg"
   xmlns="http://www.w3.org/2000/svg"
   version="1.1"
   width="450"
   height="528"
   id="svg2">
  <metadata
     id="metadata117">
    <rdf:RDF>
      <cc:Work
         rdf:about="">
        <dc:format>image/svg+xml</dc:format>
        <dc:type
           rdf:resource="http://purl.org/dc/dcmitype/StillImage" />
        <dc:title></dc:title>
      </cc:Work>
    </rdf:RDF>
  </metadata>
  <defs
     id="defs4">
    <filter
       width="1.5"
       height="1.5"
       color-interpolation-filters="sRGB"
       id="dsFilter">
      <feOffset
         id="feOffset7"
         dy="3"
         dx="3"
         in="SourceGraphic"
         result="offOut" />
      <feColorMatrix
         id="feColorMatrix9"
         values="0.2 0 0 0 0 0 0.2 0 0 0 0 0 0.2 0 0 0 0 0 1 0"
         type="matrix"
         in="offOut"
         result="matrixOut" />
      <feBlend
         in2="matrixOut"
         mode="normal"
         in="SourceGraphic"
         id="feBlend11" />
    </filter>
    <marker
       markerUnits="strokeWidth"
       refX="5"
       refY="5"
       markerWidth="8"
       markerHeight="7"
       orient="auto"
       viewBox="0 0 10 10"
       id="iPointer">
      <path
         d="M 10,0 10,10 0,5 z"
         id="path14" />
    </marker>
    <marker
       markerUnits="strokeWidth"
       refX="5"
       refY="5"
       markerWidth="8"
       markerHeight="7"
       orient="auto"
       viewBox="0 0 10 10"
       id="Pointer">
      <path
         d="M 0,0 10,5 0,10 z"
         id="path17" />
    </marker>
  </defs>
  <g
     id="boxes"
     style="fill:none;stroke:#000000;stroke-width:2">
    <g
       id="group0">
      <path
         d="m 121.5,8 126,0 0,54 q 0,10 -10,10 l -106,0 q -10,0 -10,-10 z"
         id="path0"
         style="fill:#ffffff;filter:url(#dsFilter)" />
      <text
         x="131.10001"
         y="28.799999"
         id="text0"
         style="font-size:15.19999981px;fill:#000000;stroke:none;font-family:'LMMono10, monospace'">ベンチレーター</text>
      <text
         x="161.10001"
         y="60.799999"
         id="text23"
         style="font-size:15.19999981px;fill:#000000;stroke:none;font-family:'LMMono10, monospace'">PUSH</text>
    </g>
    <g
       id="group14">
      <path
         d="m 4.5,210 q 0,-10 10,-10 l 97,0 q 10,0 10,10 l 0,76 q 0,10 -10,10 l -97,0 q -10,0 -10,-10 z"
         id="path26"
         style="fill:#ffffff;filter:url(#dsFilter)" />
      <text
         x="17.1"
         y="220.8"
         id="text14"
         style="font-size:15.19999981px;fill:#000000;stroke:none;font-family:'LMMono10, monospace'">PULL</text>
      <text
         x="80.099998"
         y="220.8"
         id="text29"
         style="font-size:15.19999981px;fill:#000000;stroke:none;font-family:'LMMono10, monospace'">SUB</text>
      <text
         x="35.099998"
         y="252.8"
         id="text31"
         style="font-size:15.19999981px;fill:#000000;stroke:none;font-family:'LMMono10, monospace'">ワーカー</text>
      <text
         x="44.099998"
         y="284.79999"
         id="text33"
         style="font-size:15.19999981px;fill:#000000;stroke:none;font-family:'LMMono10, monospace'">PUSH</text>
    </g>
    <g
       id="group17">
      <path
         d="m 148.5,210 q 0,-10 10,-10 l 97,0 q 10,0 10,10 l 0,76 q 0,10 -10,10 l -97,0 q -10,0 -10,-10 z"
         id="path36"
         style="fill:#ffffff;filter:url(#dsFilter)" />
      <text
         x="161.10001"
         y="220.8"
         id="text17"
         style="font-size:15.19999981px;fill:#000000;stroke:none;font-family:'LMMono10, monospace'">PULL</text>
      <text
         x="224.10001"
         y="220.8"
         id="text39"
         style="font-size:15.19999981px;fill:#000000;stroke:none;font-family:'LMMono10, monospace'">SUB</text>
      <text
         x="179.10001"
         y="252.8"
         id="text41"
         style="font-size:15.19999981px;fill:#000000;stroke:none;font-family:'LMMono10, monospace'">ワーカー</text>
      <text
         x="188.10001"
         y="284.79999"
         id="text43"
         style="font-size:15.19999981px;fill:#000000;stroke:none;font-family:'LMMono10, monospace'">PUSH</text>
    </g>
    <g
       id="group20">
      <path
         d="m 292.5,210 q 0,-10 10,-10 l 97,0 q 10,0 10,10 l 0,76 q 0,10 -10,10 l -97,0 q -10,0 -10,-10 z"
         id="path20"
         style="fill:#ffffff;filter:url(#dsFilter)" />
      <text
         x="305.10001"
         y="220.8"
         id="text20"
         style="font-size:15.19999981px;fill:#000000;stroke:none;font-family:'LMMono10, monospace'">PULL</text>
      <text
         x="368.10001"
         y="220.8"
         id="text48"
         style="font-size:15.19999981px;fill:#000000;stroke:none;font-family:'LMMono10, monospace'">SUB</text>
      <text
         x="323.10001"
         y="252.8"
         id="text50"
         style="font-size:15.19999981px;fill:#000000;stroke:none;font-family:'LMMono10, monospace'">ワーカー</text>
      <text
         x="332.10001"
         y="284.79999"
         id="text52"
         style="font-size:15.19999981px;fill:#000000;stroke:none;font-family:'LMMono10, monospace'">PUSH</text>
    </g>
    <g
       id="group50">
      <path
         d="m 139.5,418 q 0,-10 10,-10 l 106,0 q 10,0 10,10 l 0,76 q 0,10 -10,10 l -106,0 q -10,0 -10,-10 z"
         id="path50"
         style="fill:#ffffff;filter:url(#dsFilter)" />
      <text
         x="179.10001"
         y="428.79999"
         id="text56"
         style="font-size:15.19999981px;fill:#000000;stroke:none;font-family:'LMMono10, monospace'">PULL</text>
      <text
         x="179.10001"
         y="460.79999"
         id="text58"
         style="font-size:15.19999981px;fill:#000000;stroke:none;font-family:'LMMono10, monospace'">シンク</text>
      <text
         x="188.10001"
         y="492.79999"
         id="text60"
         style="font-size:15.19999981px;fill:#000000;stroke:none;font-family:'LMMono10, monospace'">PUB</text>
    </g>
  </g>
  <g
     id="lines"
     style="fill:none;stroke:#000000;stroke-width:2">
    <g
       id="group74">
      <path
         d="m 4.5,232 63,0 54,0"
         id="path74" />
    </g>
    <g
       id="group77">
      <path
         d="m 4.5,264 117,0"
         id="path77" />
    </g>
    <g
       id="group205">
      <path
         d="m 40.5,184 0,-54 q 0,-10 10,-10 l 134,0 134,0 q 10,0 10,10 l 0,54"
         id="path205"
         style="marker-start:url(#iPointer);marker-end:url(#Pointer)" />
    </g>
    <g
       id="group278">
      <path
         d="m 58.5,296 0,22 q 0,10 10,10 l 134,0 134,0 q 10,0 10,-10 l 0,-22"
         id="path278" />
    </g>
    <g
       id="group306">
      <path
         d="m 67.5,200 0,32"
         id="path306" />
    </g>
    <g
       id="group405">
      <path
         d="m 94.5,184 0,-22 q 0,-10 10,-10 l 80,0"
         id="path405"
         style="stroke-dasharray:5, 5;marker-start:url(#iPointer)" />
    </g>
    <g
       id="group495">
      <path
         d="m 121.5,40 126,0"
         id="path495" />
    </g>
    <g
       id="group587">
      <path
         d="m 139.5,440 126,0"
         id="path587" />
    </g>
    <g
       id="group590">
      <path
         d="m 139.5,472 126,0 0,16 0,6 q 0,10 -10,10"
         id="path590" />
    </g>
    <g
       id="group609">
      <path
         d="m 148.5,232 63,0 54,0"
         id="path609" />
    </g>
    <g
       id="group612">
      <path
         d="m 148.5,264 117,0"
         id="path612" />
    </g>
    <g
       id="group735">
      <path
         d="m 184.5,104 0,16 0,32"
         id="path735" />
    </g>
    <g
       id="group740">
      <path
         d="m 184.5,184 0,-32"
         id="path740"
         style="marker-start:url(#iPointer)" />
    </g>
    <g
       id="group771">
      <path
         d="m 193.5,152 45,0 90,0"
         id="path771"
         style="stroke-dasharray:5, 5" />
    </g>
    <g
       id="group813">
      <path
         d="m 202.5,296 0,32 0,32"
         id="path813" />
    </g>
    <g
       id="group820">
      <path
         d="m 202.5,392 0,-32"
         id="path820"
         style="marker-start:url(#iPointer)" />
    </g>
    <g
       id="group841">
      <path
         d="m 211.5,200 0,32"
         id="path841" />
    </g>
    <g
       id="group938">
      <path
         d="m 238.5,152 0,32"
         id="path938"
         style="marker-end:url(#Pointer)" />
    </g>
    <g
       id="group1059">
      <path
         d="m 265.5,488 45,0"
         id="path1059"
         style="stroke-dasharray:5, 5" />
    </g>
    <g
       id="group1143">
      <path
         d="m 292.5,232 63,0 54,0"
         id="path1143" />
    </g>
    <g
       id="group1146">
      <path
         d="m 292.5,264 117,0"
         id="path1146" />
    </g>
    <g
       id="group1305">
      <path
         d="m 337.5,152 45,0 53,0 q 10,0 10,10 l 0,316 q 0,10 -10,10 l -35,0"
         id="path1305"
         style="stroke-dasharray:5, 5" />
    </g>
    <g
       id="group1374">
      <path
         d="m 355.5,200 0,32"
         id="path1374" />
    </g>
    <g
       id="group1471">
      <path
         d="m 382.5,152 0,32"
         id="path1471"
         style="marker-end:url(#Pointer)" />
    </g>
  </g>
  <g
     id="text"
     style="font-size:15.19999981px;fill:#000000;font-family:'LMMono10, monospace'">
    <text
       x="161.10001"
       y="92.800003"
       id="text2"
       style="fill:#000000">tasks</text>
    <text
       x="206.10001"
       y="364.79999"
       id="text15"
       style="fill:#000000">結果</text>
    <text
       x="305.10001"
       y="492.79999"
       id="text19"
       style="fill:#000000">KILLシグナル</text>
  </g>
</svg>
